X: 656
T: Ping diao
%%abc-version 2.0
%%abcx-abcm2ps-target-version 5.9.1 (29 Sep 2008)
%%abc-creator hum2abc beta
%%abcx-conversion-date 2013/10/02 07:52:30
%%abc-edited-by Helmut Schaffrath
%%humdrum-veritas 3111715678
%%humdrum-veritas-data 2450684815
%%continueall 1
%%barnumbers 0
L: 1/8
M: 4/4
K: Bb
f ff2b c'f'2 [I:setbarnb 1]| 
f' d' c' b c' f' c' b | 
b ff2f bb2 | 
f b d cB4 | 
f d c B c ff2 | 
f d c B c dc2 | 
f ff2b c' f' d' | 
c' f' c' bf4 |]  



